static/images/user-logos/chef.svg

<svg viewBox="0 0 452 445.9" xmlns="http://www.w3.org/2000/svg"><g fill="#435363"><path d="m446.5 353.4h-.2l-3.9-6v8.5h-1.6v-11.1h1.7l4 6.1 3.9-6.1h1.7v11.1h-1.6v-8.5zm-11.7 2.5h-1.6v-9.6h-3.6v-1.5h8.7v1.5h-3.6v9.6zm-434.8 37.8v-.3c0-28.9 21.8-52.5 52.9-52.5 19.1 0 30.6 6.4 40 15.7l-14.2 16.4c-7.8-7.1-15.8-11.5-26-11.5-17.1 0-29.4 14.2-29.4 31.6v.3c0 17.4 12 31.9 29.4 31.9 11.6 0 18.7-4.6 26.7-11.9l14.2 14.4c-10.4 11.2-22 18.1-41.6 18.1-29.8 0-52-23.1-52-52.2"/><path d="m119.6 342.6h22.3v40.2h41.2v-40.2h22.3v101.5h-22.3v-40.7h-41.2v40.7h-22.3z"/><path d="m232.7 342.6h76.6v19.9h-54.4v20.6h47.9v19.8h-47.9v21.4h55.1v19.8h-77.3z"/><path d="m339.2 342.6h77.3v20.3h-54.9v21.6h48.4v20.3h-48.4v39.3h-22.4z"/><path d="m210.8 205.4c-35.2 0-63.8-28.6-63.8-63.8s28.6-63.8 63.8-63.8c29 0 53.6 19.5 61.3 46.1h24.7c-8.2-39.9-43.6-70-86-70-48.4 0-87.7 39.4-87.7 87.7 0 48.4 39.4 87.7 87.7 87.7 42.3 0 77.7-30.1 86-70h-24.8c-7.7 26.6-32.2 46.1-61.2 46.1"/><path d="m167.8 184.6c11 11 26.2 17.8 43 17.8v-25.4c-9.8 0-18.6-4-25-10.4z"/></g><path d="m149.9 141.6c0 8.7 1.9 17 5.2 24.5l23.3-10.2c-1.9-4.4-3-9.2-3-14.3 0-19.6 15.9-35.4 35.4-35.4v-25.4c-33.6 0-60.9 27.3-60.9 60.8" fill="#f38b00"/><path d="m232.8 84.9-9.2 23.7c7.5 2.9 13.8 8.4 17.8 15.3h27.6c-5.5-17.8-18.9-32.2-36.2-39" fill="#435363"/><path d="m223.6 174.6 9.2 23.7c17.3-6.7 30.7-21.1 36.1-39h-27.5c-4 6.9-10.3 12.4-17.8 15.3" fill="#f38b00"/><path d="m210.8 259.2c-32.4 0-61.8-13.2-83.1-34.5l-17 17c25.6 25.6 61 41.5 100.1 41.5 72.2 0 131.8-54.1 140.5-123.9h-24.3c-8.5 56.5-57.4 99.9-116.2 99.9m0-235.2c26.3 0 50.7 8.7 70.3 23.4l14.4-19.3c-23.7-17.6-53-28.1-84.7-28.1-60.1 0-111.4 37.4-132 90.3l22.4 8.7c17.1-43.9 59.8-75 109.6-75" fill="#f38b00"/><path d="m327 123.9h24.3c-2.6-20.8-9.7-40.3-20.4-57.3l-20.4 12.7c8.3 13.4 14.1 28.5 16.5 44.6" fill="#435363"/><path d="m299.7 123.9h24.3c-6.3-40.8-34.3-74.5-71.7-89.1l-8.7 22.3c28.5 11.1 50 36.2 56.1 66.8" fill="#f38b00"/><path d="m210.8 50.9v-24c-48.6 0-90.2 30.4-106.8 73.1l22.3 8.7c13.1-33.8 46-57.8 84.5-57.8" fill="#435363"/><path d="m120.1 141.6h-24c0 48.2 29.9 89.5 72.1 106.4l8.9-22.2c-33.4-13.4-57-46.1-57-84.2" fill="#f38b00"/><path d="m210.8 232.3v24c57.2 0 104.7-42.1 113.3-97h-24.3c-8.3 41.6-45.1 73-89 73m-129.7-33.7c-8-18.1-12-37.6-12-57h24.1c0 16.1 3.3 32.3 9.9 47.3z" fill="#435363"/></svg>

<svg xmlns="http://www.w3.org/2000/svg" viewBox="0 0 452 445.9"><path fill="#435363" d="M446.5 353.4h-.2l-3.9-6v8.5h-1.6v-11.1h1.7l4 6.1 3.9-6.1h1.7v11.1h-1.6v-8.5l-4 6zm-11.7 2.5h-1.6v-9.6h-3.6v-1.5h8.7v1.5h-3.6v9.6zM0 393.7v-.3c0-28.9 21.8-52.5 52.9-52.5 19.1 0 30.6 6.4 40 15.7L78.7 373c-7.8-7.1-15.8-11.5-26-11.5-17.1 0-29.4 14.2-29.4 31.6v.3c0 17.4 12 31.9 29.4 31.9 11.6 0 18.7-4.6 26.7-11.9l14.2 14.4c-10.4 11.2-22 18.1-41.6 18.1-29.8 0-52-23.1-52-52.2"/><path fill="#435363" d="M119.6 342.6L141.9 342.6 141.9 382.8 183.1 382.8 183.1 342.6 205.4 342.6 205.4 444.1 183.1 444.1 183.1 403.4 141.9 403.4 141.9 444.1 119.6 444.1z"/><path fill="#435363" d="M232.7 342.6L309.3 342.6 309.3 362.5 254.9 362.5 254.9 383.1 302.8 383.1 302.8 402.9 254.9 402.9 254.9 424.3 310 424.3 310 444.1 232.7 444.1z"/><path fill="#435363" d="M339.2 342.6L416.5 342.6 416.5 362.9 361.6 362.9 361.6 384.5 410 384.5 410 404.8 361.6 404.8 361.6 444.1 339.2 444.1z"/><path fill="#435363" d="M210.8 205.4c-35.2 0-63.8-28.6-63.8-63.8 0-35.2 28.6-63.8 63.8-63.8 29 0 53.6 19.5 61.3 46.1h24.7c-8.2-39.9-43.6-70-86-70-48.4 0-87.7 39.4-87.7 87.7 0 48.4 39.4 87.7 87.7 87.7 42.3 0 77.7-30.1 86-70H272c-7.7 26.6-32.2 46.1-61.2 46.1"/><path fill="#435363" d="M167.8 184.6c11 11 26.2 17.8 43 17.8V177c-9.8 0-18.6-4-25-10.4l-18 18z"/><path fill="#F38B00" d="M149.9 141.6c0 8.7 1.9 17 5.2 24.5l23.3-10.2c-1.9-4.4-3-9.2-3-14.3 0-19.6 15.9-35.4 35.4-35.4V80.8c-33.6 0-60.9 27.3-60.9 60.8"/><path fill="#435363" d="M232.8 84.9l-9.2 23.7c7.5 2.9 13.8 8.4 17.8 15.3H269c-5.5-17.8-18.9-32.2-36.2-39"/><path fill="#F38B00" d="M223.6 174.6l9.2 23.7c17.3-6.7 30.7-21.1 36.1-39h-27.5c-4 6.9-10.3 12.4-17.8 15.3"/><path fill="#F38B00" d="M210.8 259.2c-32.4 0-61.8-13.2-83.1-34.5l-17 17c25.6 25.6 61 41.5 100.1 41.5 72.2 0 131.8-54.1 140.5-123.9H327c-8.5 56.5-57.4 99.9-116.2 99.9m0-235.2c26.3 0 50.7 8.7 70.3 23.4l14.4-19.3C271.8 10.5 242.5 0 210.8 0c-60.1 0-111.4 37.4-132 90.3l22.4 8.7c17.1-43.9 59.8-75 109.6-75"/><path fill="#435363" d="M327 123.9h24.3c-2.6-20.8-9.7-40.3-20.4-57.3l-20.4 12.7c8.3 13.4 14.1 28.5 16.5 44.6"/><path fill="#F38B00" d="M299.7 123.9H324c-6.3-40.8-34.3-74.5-71.7-89.1l-8.7 22.3c28.5 11.1 50 36.2 56.1 66.8"/><path fill="#435363" d="M210.8 50.9v-24c-48.6 0-90.2 30.4-106.8 73.1l22.3 8.7c13.1-33.8 46-57.8 84.5-57.8"/><path fill="#F38B00" d="M120.1 141.6h-24c0 48.2 29.9 89.5 72.1 106.4l8.9-22.2c-33.4-13.4-57-46.1-57-84.2"/><path fill="#435363" d="M210.8 232.3v24c57.2 0 104.7-42.1 113.3-97h-24.3c-8.3 41.6-45.1 73-89 73M81.1 198.6c-8-18.1-12-37.6-12-57h24.1c0 16.1 3.3 32.3 9.9 47.3l-22 9.7z"/></svg>
